icons/r-light.svg

<svg xmlns="http://www.w3.org/2000/svg" width="256" height="256" fill="none" viewBox="0 0 256 256"><rect width="256" height="256" fill="#F4F2ED" rx="60"/><g clip-path="url(#clip0_101_256)"><path fill="url(#paint0_linear_101_256)" fill-rule="evenodd" d="M127.849 185.237C72.8422 185.237 28.2502 155.372 28.2502 118.533C28.2502 81.6931 72.8422 51.8287 127.849 51.8287C182.856 51.8287 227.447 81.6931 227.447 118.533C227.447 155.372 182.856 185.237 127.849 185.237ZM143.094 77.9077C101.284 77.9077 67.3906 98.3243 67.3906 123.509C67.3906 148.694 101.284 169.111 143.094 169.111C184.904 169.111 215.759 155.153 215.759 123.509C215.759 91.876 184.904 77.9077 143.094 77.9077Z" clip-rule="evenodd"/><path fill="url(#paint1_linear_101_256)" fill-rule="evenodd" d="M179.934 155.144C179.934 155.144 185.962 156.963 189.464 158.735C190.679 159.35 192.782 160.577 194.298 162.188C195.784 163.766 196.508 165.365 196.508 165.365L220.265 205.42L181.868 205.437L163.912 171.718C163.912 171.718 160.235 165.401 157.972 163.569C156.085 162.041 155.28 161.497 153.414 161.497C152.116 161.497 144.291 161.497 144.291 161.497L144.298 205.413L110.321 205.427V93.2481H178.553C178.553 93.2481 209.63 93.8086 209.63 123.376C209.63 152.943 179.934 155.144 179.934 155.144ZM165.155 117.581L144.585 117.568L144.575 136.643L165.155 136.636C165.155 136.636 174.685 136.606 174.685 126.933C174.685 117.065 165.155 117.581 165.155 117.581Z" clip-rule="evenodd"/></g><defs><linearGradient id="paint0_linear_101_256" x1="28.25" x2="151.612" y1="51.829" y2="236.026" gradientUnits="userSpaceOnUse"><stop stop-color="#CBCED0"/><stop offset="1" stop-color="#84838B"/></linearGradient><linearGradient id="paint1_linear_101_256" x1="110.321" x2="222.487" y1="93.248" y2="203.17" gradientUnits="userSpaceOnUse"><stop stop-color="#276DC3"/><stop offset="1" stop-color="#165CAA"/></linearGradient><clipPath id="clip0_101_256"><rect width="200" height="154.972" fill="#fff" transform="translate(28 51)"/></clipPath></defs></svg>

<svg xmlns="http://www.w3.org/2000/svg" width="256" height="256" fill="none"><rect width="256" height="256" fill="#F4F2ED" rx="60"/><g fill-rule="evenodd" clip-path="url(#clip0_101_256)" clip-rule="evenodd"><path fill="url(#paint0_linear_101_256)" d="M127.849 185.237c-55.007 0-99.599-29.865-99.599-66.704 0-36.84 44.592-66.704 99.599-66.704s99.598 29.864 99.598 66.704-44.591 66.704-99.598 66.704m15.245-107.33c-41.81 0-75.703 20.417-75.703 45.602s33.893 45.602 75.703 45.602 72.665-13.958 72.665-45.602c0-31.633-30.855-45.601-72.665-45.601"/><path fill="url(#paint1_linear_101_256)" d="M179.934 155.144s6.028 1.819 9.53 3.591c1.215.615 3.318 1.842 4.834 3.453 1.486 1.578 2.21 3.177 2.21 3.177l23.757 40.055-38.397.017-17.956-33.719s-3.677-6.317-5.94-8.149c-1.887-1.528-2.692-2.072-4.558-2.072h-9.123l.007 43.916-33.977.014V93.248h68.232s31.077.56 31.077 30.128c0 29.567-29.696 31.768-29.696 31.768m-14.779-37.563-20.57-.013-.01 19.075 20.58-.007s9.53-.03 9.53-9.703c0-9.868-9.53-9.352-9.53-9.352"/></g><defs><linearGradient id="paint0_linear_101_256" x1="28.25" x2="151.612" y1="51.829" y2="236.026" gradientUnits="userSpaceOnUse"><stop stop-color="#CBCED0"/><stop offset="1" stop-color="#84838B"/></linearGradient><linearGradient id="paint1_linear_101_256" x1="110.321" x2="222.487" y1="93.248" y2="203.17" gradientUnits="userSpaceOnUse"><stop stop-color="#276DC3"/><stop offset="1" stop-color="#165CAA"/></linearGradient><clipPath id="clip0_101_256"><path fill="#fff" d="M28 51h200v154.972H28z"/></clipPath></defs></svg>
